icons/female_condom.svg

<svg width="48" height="48" viewBox="0 0 48 48" fill="none" xmlns="http://www.w3.org/2000/svg">
<path fill-rule="evenodd" clip-rule="evenodd" d="M23 38H9C8.44772 38 8 38.4477 8 39C8 39.5523 8.44772 40 9 40H23C23.5523 40 24 39.5523 24 39C24 38.4477 23.5523 38 23 38ZM9 36C7.34315 36 6 37.3431 6 39C6 40.6569 7.34315 42 9 42H23C24.6569 42 26 40.6569 26 39C26 37.3431 24.6569 36 23 36H9Z" fill="black"/>
<path fill-rule="evenodd" clip-rule="evenodd" d="M11.4545 30.9984V36H20.5455V30.9984C20.5455 30.3507 20.7917 29.7307 20.9227 29.4118C21.052 29.0969 21.2174 28.7443 21.3625 28.435C21.3962 28.3632 21.4288 28.2937 21.4596 28.2275C21.6398 27.8404 21.786 27.5113 21.888 27.2241C21.974 26.9819 21.994 26.8619 21.9986 26.834C21.9987 26.8334 21.9988 26.8328 21.9989 26.8322C21.9988 26.8316 21.9987 26.831 21.9986 26.8303C21.994 26.8025 21.974 26.6825 21.888 26.4403C21.786 26.1531 21.6398 25.824 21.4596 25.4369C21.4288 25.3707 21.3962 25.3012 21.3625 25.2294C21.2175 24.9202 21.052 24.5675 20.9227 24.2526C20.7917 23.9337 20.5455 23.3137 20.5455 22.666V22.2493C20.5455 21.5638 20.8152 20.9538 20.9596 20.6437C21.0969 20.3487 21.2734 20.023 21.4184 19.7553C21.4511 19.6951 21.4821 19.6377 21.5108 19.5844C21.6895 19.2516 21.8227 18.9884 21.9127 18.7606C21.9742 18.6049 21.9927 18.5212 21.9981 18.4945C21.9925 18.4613 21.9709 18.3414 21.888 18.1078C21.786 17.8206 21.6398 17.4915 21.4596 17.1044C21.4288 17.0383 21.3962 16.9688 21.3625 16.8969C21.2174 16.5877 21.052 16.235 20.9227 15.9201C20.7917 15.6012 20.5455 14.9812 20.5455 14.3335V13.0836C20.5455 11.2124 19.9115 9.97999 19.1135 9.21226C18.2906 8.42074 17.1653 8 16 8C14.8347 8 13.7094 8.42074 12.8865 9.21226C12.0885 9.97999 11.4545 11.2124 11.4545 13.0836V14.3335C11.4545 14.9812 11.2083 15.6012 11.0773 15.9201C10.948 16.235 10.7826 16.5877 10.6375 16.8969C10.6038 16.9687 10.5712 17.0382 10.5404 17.1044C10.3602 17.4915 10.214 17.8206 10.112 18.1078C10.0291 18.3414 10.0075 18.4613 10.0019 18.4945C10.0073 18.5212 10.0258 18.6049 10.0873 18.7606C10.1773 18.9884 10.3105 19.2516 10.4892 19.5844C10.5179 19.6377 10.5489 19.6951 10.5816 19.7553C10.7266 20.023 10.9031 20.3487 11.0404 20.6437C11.1848 20.9538 11.4545 21.5638 11.4545 22.2493V22.666C11.4545 23.3137 11.2083 23.9337 11.0773 24.2526C10.948 24.5674 10.7826 24.9201 10.6375 25.2294C10.6038 25.3012 10.5712 25.3707 10.5404 25.4369C10.3602 25.824 10.214 26.1531 10.112 26.4403C10.026 26.6825 10.006 26.8025 10.0014 26.8303C10.0013 26.831 10.0012 26.8316 10.0011 26.8322C10.0012 26.8328 10.0013 26.8334 10.0014 26.834C10.006 26.8619 10.026 26.9819 10.112 27.2241C10.214 27.5113 10.3602 27.8404 10.5404 28.2275C10.5712 28.2937 10.6038 28.3632 10.6375 28.435C10.7826 28.7443 10.948 29.0969 11.0773 29.4118C11.2083 29.7307 11.4545 30.3507 11.4545 30.9984ZM22.5455 30.9984C22.5455 30.6239 22.8393 29.9968 23.1629 29.3064C23.5592 28.4609 24 27.5203 24 26.8322C24 26.1441 23.5592 25.2035 23.1629 24.358C22.8393 23.6676 22.5455 23.0405 22.5455 22.666V22.2493C22.5455 21.8748 22.8393 21.3319 23.1629 20.7342C23.5592 20.0021 24 19.1878 24 18.4997C24 17.8116 23.5592 16.8711 23.1629 16.0255C22.8393 15.3351 22.5455 14.708 22.5455 14.3335V13.0836C22.5455 3.6388 9.45455 3.6388 9.45455 13.0836V14.3335C9.45455 14.708 9.16067 15.3351 8.8371 16.0255C8.44082 16.8711 8 17.8116 8 18.4997C8 19.1878 8.44082 20.0021 8.8371 20.7342C9.16067 21.3319 9.45455 21.8748 9.45455 22.2493V22.666C9.45455 23.0405 9.16067 23.6676 8.8371 24.358C8.44082 25.2035 8 26.1441 8 26.8322C8 27.5203 8.44082 28.4609 8.8371 29.3064C9.16067 29.9968 9.45455 30.6239 9.45455 30.9984V38H22.5455V30.9984Z" fill="black"/>
<path fill-rule="evenodd" clip-rule="evenodd" d="M17 12C15.8954 12 15 12.8954 15 14C15 14.5523 14.5523 15 14 15C13.4477 15 13 14.5523 13 14C13 11.7909 14.7909 10 17 10C17.5523 10 18 10.4477 18 11C18 11.5523 17.5523 12 17 12Z" fill="black"/>
<path fill-rule="evenodd" clip-rule="evenodd" d="M34 24C37.3137 24 40 21.3137 40 18C40 14.6863 37.3137 12 34 12C30.6863 12 28 14.6863 28 18C28 21.3137 30.6863 24 34 24ZM34 26C38.4183 26 42 22.4183 42 18C42 13.5817 38.4183 10 34 10C29.5817 10 26 13.5817 26 18C26 22.4183 29.5817 26 34 26Z" fill="black"/>
<path fill-rule="evenodd" clip-rule="evenodd" d="M33 36V25H35V36C35 36.5523 34.5523 37 34 37C33.4477 37 33 36.5523 33 36Z" fill="black"/>
<path fill-rule="evenodd" clip-rule="evenodd" d="M29 30C29 29.4477 29.4477 29 30 29H38C38.5523 29 39 29.4477 39 30C39 30.5523 38.5523 31 38 31H30C29.4477 31 29 30.5523 29 30Z" fill="black"/>
<path d="M17 12C15.8954 12 15 12.8954 15 14C15 14.5523 14.5523 15 14 15C13.4477 15 13 14.5523 13 14C13 11.7909 14.7909 10 17 10C17.5523 10 18 10.4477 18 11C18 11.5523 17.5523 12 17 12Z" fill="black"/>
<path fill-rule="evenodd" clip-rule="evenodd" d="M9.45455 36V30.9984C9.45455 30.6239 9.16067 29.9968 8.8371 29.3064C8.44082 28.4609 8 27.5203 8 26.8322C8 26.1441 8.44082 25.2035 8.8371 24.358C9.16067 23.6676 9.45455 23.0405 9.45455 22.666V22.2493C9.45455 21.8748 9.16067 21.3319 8.8371 20.7342C8.44082 20.0021 8 19.1878 8 18.4997C8 17.8116 8.44082 16.8711 8.8371 16.0255C9.16067 15.3351 9.45455 14.708 9.45455 14.3335V13.0836C9.45455 3.6388 22.5455 3.6388 22.5455 13.0836V14.3335C22.5455 14.708 22.8393 15.3351 23.1629 16.0255C23.5592 16.8711 24 17.8116 24 18.4997C24 19.1878 23.5592 20.0021 23.1629 20.7342C22.8393 21.3319 22.5455 21.8748 22.5455 22.2493V22.666C22.5455 23.0405 22.8393 23.6676 23.1629 24.358C23.5592 25.2035 24 26.1441 24 26.8322C24 27.5203 23.5592 28.4609 23.1629 29.3064C22.8393 29.9968 22.5455 30.6239 22.5455 30.9984V36H23C24.6569 36 26 37.3431 26 39C26 40.6569 24.6569 42 23 42H9C7.34315 42 6 40.6569 6 39C6 37.3431 7.34315 36 9 36H9.45455ZM11.4545 36V30.9984C11.4545 30.3507 11.2083 29.7307 11.0773 29.4118C10.948 29.0969 10.7826 28.7443 10.6375 28.435L10.6354 28.4305C10.6025 28.3603 10.5706 28.2923 10.5404 28.2275C10.3602 27.8404 10.214 27.5113 10.112 27.2241C10.026 26.9819 10.006 26.8619 10.0014 26.834C10.0013 26.8334 10.0012 26.8328 10.0011 26.8322C10.0012 26.8316 10.0013 26.831 10.0014 26.8303C10.006 26.8025 10.026 26.6825 10.112 26.4403C10.214 26.1531 10.3602 25.824 10.5404 25.4369C10.5712 25.3707 10.6038 25.3012 10.6375 25.2294C10.7826 24.9201 10.948 24.5674 11.0773 24.2526C11.2083 23.9337 11.4545 23.3137 11.4545 22.666V22.2493C11.4545 21.5638 11.1848 20.9538 11.0404 20.6437C10.9031 20.3487 10.7266 20.023 10.5816 19.7553C10.5489 19.6951 10.5179 19.6377 10.4892 19.5844C10.3105 19.2516 10.1773 18.9884 10.0873 18.7606C10.0258 18.6049 10.0073 18.5212 10.0019 18.4945C10.0075 18.4613 10.0291 18.3414 10.112 18.1078C10.214 17.8206 10.3602 17.4915 10.5404 17.1044C10.5709 17.039 10.6031 16.9703 10.6364 16.8992L10.6375 16.8969C10.7826 16.5877 10.948 16.235 11.0773 15.9201C11.2083 15.6012 11.4545 14.9812 11.4545 14.3335V13.0836C11.4545 11.2124 12.0885 9.97999 12.8865 9.21226C13.7094 8.42074 14.8347 8 16 8C17.1653 8 18.2906 8.42074 19.1135 9.21226C19.9115 9.97999 20.5455 11.2124 20.5455 13.0836V14.3335C20.5455 14.9812 20.7917 15.6012 20.9227 15.9201C21.052 16.235 21.2174 16.5877 21.3625 16.8969L21.3631 16.8982C21.3966 16.9696 21.429 17.0387 21.4596 17.1044C21.6398 17.4915 21.786 17.8206 21.888 18.1078C21.9709 18.3414 21.9925 18.4613 21.9981 18.4945C21.9927 18.5212 21.9742 18.6049 21.9127 18.7606C21.8227 18.9884 21.6895 19.2516 21.5108 19.5844C21.4821 19.6377 21.4511 19.6951 21.4184 19.7553C21.2734 20.023 21.0969 20.3487 20.9596 20.6437C20.8152 20.9538 20.5455 21.5638 20.5455 22.2493V22.666C20.5455 23.3137 20.7917 23.9337 20.9227 24.2526C21.052 24.5675 21.2175 24.9202 21.3625 25.2294C21.3962 25.3012 21.4288 25.3707 21.4596 25.4369C21.6398 25.824 21.786 26.1531 21.888 26.4403C21.974 26.6825 21.994 26.8025 21.9986 26.8303C21.9987 26.831 21.9988 26.8316 21.9989 26.8322C21.9988 26.8328 21.9987 26.8334 21.9986 26.834C21.994 26.8619 21.974 26.9819 21.888 27.2241C21.786 27.5113 21.6398 27.8404 21.4596 28.2275C21.4288 28.2937 21.3962 28.3632 21.3625 28.435C21.2174 28.7443 21.052 29.0969 20.9227 29.4118C20.7917 29.7307 20.5455 30.3507 20.5455 30.9984V36H11.4545ZM9 38C8.44772 38 8 38.4477 8 39C8 39.5523 8.44772 40 9 40H23C23.5523 40 24 39.5523 24 39C24 38.4477 23.5523 38 23 38H9Z" fill="black"/>
<path fill-rule="evenodd" clip-rule="evenodd" d="M42 18C42 22.0796 38.9463 25.446 35 25.9381V29H38C38.5523 29 39 29.4477 39 30C39 30.5523 38.5523 31 38 31H35V36C35 36.5523 34.5523 37 34 37C33.4477 37 33 36.5523 33 36V31H30C29.4477 31 29 30.5523 29 30C29 29.4477 29.4477 29 30 29H33V25.9381C29.0537 25.446 26 22.0796 26 18C26 13.5817 29.5817 10 34 10C38.4183 10 42 13.5817 42 18ZM40 18C40 21.3137 37.3137 24 34 24C30.6863 24 28 21.3137 28 18C28 14.6863 30.6863 12 34 12C37.3137 12 40 14.6863 40 18Z" fill="black"/>
</svg>

<svg
  xmlns="http://www.w3.org/2000/svg"
  width="24"
  height="24"
  viewBox="0 0 24 24"
  fill="none"
  stroke="currentColor"
  stroke-width="2"
  stroke-linecap="round"
  stroke-linejoin="round"
>
  <path
    fill-rule="evenodd"
    d="M23 38H9a1 1 0 1 0 0 2h14a1 1 0 1 0 0-2M9 36a3 3 0 1 0 0 6h14a3 3 0 1 0 0-6z"
    clip-rule="evenodd"
  />
  <path
    fill-rule="evenodd"
    d="M11.455 30.998V36h9.09v-5.002c0-.647.247-1.267.378-1.586a23 23 0 0 1 .44-.977l.097-.207c.18-.388.326-.717.428-1.004.086-.242.106-.362.11-.39v-.004a2.3 2.3 0 0 0-.11-.39 12 12 0 0 0-.428-1.003l-.098-.208c-.144-.309-.31-.662-.44-.976-.13-.32-.377-.94-.377-1.587v-.417c0-.685.27-1.295.415-1.605.137-.295.313-.621.458-.889l.093-.17c.178-.333.312-.597.402-.824.061-.156.08-.24.085-.267a2.3 2.3 0 0 0-.11-.386 12 12 0 0 0-.428-1.004l-.098-.207c-.145-.31-.31-.662-.44-.977-.13-.319-.377-.939-.377-1.586v-1.25c0-1.872-.634-3.104-1.432-3.872C18.292 8.421 17.165 8 16 8s-2.29.42-3.113 1.212c-.799.768-1.433 2-1.433 3.872v1.25c0 .647-.246 1.267-.377 1.586-.129.315-.294.668-.44.977l-.097.207c-.18.387-.326.717-.428 1.004a2.3 2.3 0 0 0-.11.386c.005.027.024.11.085.267.09.227.223.49.402.823l.093.171c.145.268.321.594.458.889.145.31.415.92.415 1.605v.417c0 .648-.247 1.268-.378 1.587-.129.314-.294.667-.44.976l-.097.208c-.18.387-.326.716-.428 1.003a2.3 2.3 0 0 0-.11.392v.002c.004.028.024.148.11.39.102.287.248.616.428 1.003l.098.208c.145.31.31.662.44.977.13.319.377.939.377 1.586m11.09 0c0-.374.294-1.001.618-1.692.396-.845.837-1.786.837-2.474s-.44-1.629-.837-2.474c-.324-.69-.617-1.317-.617-1.692v-.417c0-.374.293-.917.617-1.515.396-.732.837-1.546.837-2.234s-.44-1.629-.837-2.474c-.324-.69-.617-1.318-.617-1.692v-1.25c0-9.445-13.091-9.445-13.091 0v1.25c0 .374-.294 1.001-.618 1.692C8.441 16.87 8 17.812 8 18.5s.44 1.502.837 2.234c.324.598.618 1.14.618 1.515v.417c0 .375-.294 1.002-.618 1.692-.396.845-.837 1.786-.837 2.474s.44 1.629.837 2.474c.324.69.618 1.318.618 1.692V38h13.09z"
    clip-rule="evenodd"
  />
  <path
    fill-rule="evenodd"
    d="M17 12a2 2 0 0 0-2 2 1 1 0 1 1-2 0 4 4 0 0 1 4-4 1 1 0 1 1 0 2"
    clip-rule="evenodd"
  />
  <path
    fill-rule="evenodd"
    d="M34 24a6 6 0 1 0 0-12 6 6 0 0 0 0 12m0 2a8 8 0 1 0 0-16 8 8 0 0 0 0 16"
    clip-rule="evenodd"
  />
  <path
    fill-rule="evenodd"
    d="M33 36V25h2v11a1 1 0 1 1-2 0"
    clip-rule="evenodd"
  />
  <path
    fill-rule="evenodd"
    d="M29 30a1 1 0 0 1 1-1h8a1 1 0 1 1 0 2h-8a1 1 0 0 1-1-1"
    clip-rule="evenodd"
  />
  <path d="M17 12a2 2 0 0 0-2 2 1 1 0 1 1-2 0 4 4 0 0 1 4-4 1 1 0 1 1 0 2" />
  <path
    fill-rule="evenodd"
    d="M9.455 36v-5.002c0-.374-.294-1.001-.618-1.692C8.441 28.461 8 27.52 8 26.832s.44-1.629.837-2.474c.324-.69.618-1.317.618-1.692v-.417c0-.374-.294-.917-.618-1.515C8.441 20.002 8 19.188 8 18.5s.44-1.629.837-2.474c.324-.69.618-1.318.618-1.692v-1.25c0-9.445 13.09-9.445 13.09 0v1.25c0 .374.294 1.001.618 1.692.396.845.837 1.786.837 2.474s-.44 1.502-.837 2.234c-.324.598-.617 1.14-.617 1.515v.417c0 .375.293 1.002.617 1.692.396.845.837 1.786.837 2.474s-.44 1.629-.837 2.474c-.324.69-.617 1.318-.617 1.692V36H23a3 3 0 1 1 0 6H9a3 3 0 1 1 0-6zm2 0v-5.002c0-.647-.247-1.267-.378-1.586a23 23 0 0 0-.44-.977l-.002-.005-.095-.203c-.18-.387-.326-.716-.428-1.003a2.3 2.3 0 0 1-.11-.39v-.004c.004-.027.024-.147.11-.39.102-.287.248-.616.428-1.003l.098-.208c.145-.309.31-.662.44-.976.13-.32.377-.94.377-1.587v-.417c0-.685-.27-1.295-.415-1.605-.137-.295-.313-.621-.458-.889l-.093-.17a8 8 0 0 1-.402-.824 1.6 1.6 0 0 1-.085-.267c.005-.033.027-.153.11-.386.102-.287.248-.617.428-1.004l.096-.205.002-.002c.145-.31.31-.662.44-.977.13-.319.377-.939.377-1.586v-1.25c0-1.872.633-3.104 1.431-3.872C13.71 8.421 14.836 8 16 8s2.29.42 3.113 1.212c.799.768 1.433 2 1.433 3.872v1.25c0 .647.246 1.267.377 1.586.129.315.294.668.44.977v.001l.097.206c.18.387.326.717.428 1.004.083.233.104.353.11.386-.005.027-.024.11-.085.267-.09.227-.224.49-.402.823l-.093.171c-.145.268-.321.594-.458.889-.145.31-.415.92-.415 1.605v.417c0 .648.247 1.268.378 1.587.129.314.295.667.44.976l.097.208c.18.387.326.716.428 1.003a2.3 2.3 0 0 1 .11.392v.002a2.3 2.3 0 0 1-.11.39c-.102.287-.248.616-.428 1.003l-.098.208a23 23 0 0 0-.44.977c-.13.319-.377.939-.377 1.586V36zM9 38a1 1 0 1 0 0 2h14a1 1 0 1 0 0-2z"
    clip-rule="evenodd"
  />
  <path
    fill-rule="evenodd"
    d="M42 18a8 8 0 0 1-7 7.938V29h3a1 1 0 1 1 0 2h-3v5a1 1 0 1 1-2 0v-5h-3a1 1 0 1 1 0-2h3v-3.062A8.001 8.001 0 0 1 34 10a8 8 0 0 1 8 8m-2 0a6 6 0 1 1-12 0 6 6 0 0 1 12 0"
    clip-rule="evenodd"
  />
</svg>
